X:1
T:Polska efter Lovar Hans
R:Polska
O:Oljonsbyn, Orsa, Dalarna
Z:ABC-transkribering av Olle Lindvall
M:3/4
L:1/8
K:C
E2A,2C2| D3/2^F/2E2G2| A3/2G/2A<BA3/2G/2| E2G/2A/2 G/2^F <DE/2| ^F<AE4::
E3/2D/2C CD2| \
E2A/2B/2 A/2G/2E2|
E3/2 (3DCB, (3CDCD/2| \
E2A/2B/2 A/2G/2E2| \
E3/2D<CA,<B,G,/2| \
 (3B,DCA,4:|]

